X:1
T:Title
%%score { 1 | ( 2 3 ) }
L:1/8
M:6/8
K:A
V:1 treble nm="Grand Piano"
V:2 bass 
V:3 bass 
V:1
 z3 z2[Q:1/4=95] E | [CA]2 [CA] [CA]G[CA] | [Ec]2 [CA] [CA]G[CA] | [EB]2 [GB] .[EG]2 [DG] | %4
 [CA]3- [CA]2 A | [GB]2 [GB] [GB]2 [GB] | [GB]2 [Ac] [Bd]c[GB] | [Ac]2 [Ac] [Ac]2 [A^d] | %8
 [Ge]3- [Ge]2 [Bd] | [Ac]2 [GB] A2 [Bd] | [Ac]2 [GB] A2 A | [GB]2 [GB] .[EG]2 [DG] | [CA]6 | %13
 [CA]3 [CA][B,G][CA] | [Ec]3 [CA]3 | [GB]3 [GB][GB][Ge] | [EAc]3 [CA]3 | [CA]3 [CA][B,G][CA] | %18
 [Ec]3 [CA]2 [EA] | [GB]2 [GB] .[EG]2 [DG] |[M:5/8] [CA]-[CA]- [CA]3 |] %21
V:2
 z3 z2 E, | A,,2 A,, z B,A,, | A,,2 A,, z B,A,, | E,2 E, z FE, | A,,3- A,,2 A,, | E,2 E, E,2 E, | %6
 E,2 E, z AE, | A,2 A, A,G,F, | E,3- E,2 E, | E,2 E, A,2 E, | E,2 E, A,2 C, | E,2 E, z FE, | A,,6 | %13
 A,,3 C,E,E, | A,3 A,3 | E,3 E,E,E, | [A,,A,]3 [A,,A,]3 | A,,3 C,E,E, | A,3 A,2 C, | E,2 E, z FE, | %20
[M:5/8] A,,-A,,- A,,3 |] %21
V:3
 x6 | z3 .A,,3 | z3 .A,,3 | z3 .E,3 | x6 | x6 | z3 .E,3 | x6 | x6 | x6 | x6 | z3 .E,3 | x6 | x6 | %14
 x6 | x6 | x6 | x6 | x6 | z3 .E,3 |[M:5/8] x5 |] %21

